svg/emoji_u1f6e2.svg

<svg width="128" height="128" viewBox="0 0 128 128" fill="none" xmlns="http://www.w3.org/2000/svg">
<path d="M102.72 78.5C102.72 77.05 102.27 75.64 101.44 74.29V53.7C102.27 52.36 102.72 50.95 102.72 49.49C102.72 48.03 102.27 46.63 101.44 45.28V20.52H26.55V45.29C25.72 46.63 25.27 48.04 25.27 49.5C25.27 50.96 25.72 52.36 26.55 53.71V74.3C25.72 75.64 25.27 77.05 25.27 78.51C25.27 79.97 25.72 81.37 26.55 82.72V103.31C25.72 104.65 25.27 106.06 25.27 107.52C25.28 116.62 42.61 124 64 124C85.39 124 102.72 116.62 102.72 107.51C102.72 106.06 102.27 104.65 101.44 103.3V82.71C102.28 81.37 102.72 79.96 102.72 78.5Z" fill="#DC0D27" style="fill:#DC0D27;fill:color(display-p3 0.8627 0.0510 0.1529);fill-opacity:1;"/>
<path d="M90.3399 58.37C95.6299 56.12 99.0399 53.25 99.7399 50.53C99.8999 49.9 100.49 49.49 101.12 49.49C101.89 49.49 102.5 50.11 102.57 50.84C102.66 50.39 102.71 49.94 102.71 49.49C102.71 48.04 102.26 46.63 101.43 45.28V20.52H85.0099L60.6399 36.92L72.1799 39.72C74.9299 40.39 76.8799 42.93 76.8799 45.86V57.07C76.8799 59.69 79.2099 61.67 81.6799 61.11C84.8399 60.39 87.7599 59.47 90.3399 58.37Z" fill="#B00020" style="fill:#B00020;fill:color(display-p3 0.6917 0.0000 0.1245);fill-opacity:1;"/>
<path d="M101.45 74.3002V58.0702V53.8002V53.7002C98.3099 58.7802 89.6299 62.9002 78.3299 64.8202C78.3099 64.8202 78.2799 64.8302 78.2599 64.8302C73.8499 65.5702 69.0399 65.9802 64.0099 65.9802C50.2799 65.9802 38.2199 62.9302 31.3499 58.3402C44.1999 72.5402 69.6799 70.1802 69.6799 70.1802C70.6099 70.1202 71.5199 70.0502 72.4199 69.9602C74.8199 69.7302 76.8899 71.6802 76.8899 74.1702V87.7202C76.8899 89.4502 78.4099 90.7702 80.0499 90.4502C83.8299 89.6902 87.3199 88.6602 90.3499 87.3702C95.6399 85.1202 99.0499 82.2502 99.7499 79.5302C99.9099 78.9002 100.5 78.4902 101.13 78.4902C101.9 78.4902 102.51 79.1102 102.58 79.8402C102.67 79.3902 102.72 78.9402 102.72 78.4902C102.72 77.0502 102.28 75.6402 101.45 74.3002Z" fill="#B00020" style="fill:#B00020;fill:color(display-p3 0.6917 0.0000 0.1245);fill-opacity:1;"/>
<path d="M101.45 103.3V88.3V82.81V82.71C98.31 87.79 89.63 91.91 78.33 93.83C78.31 93.83 78.28 93.84 78.26 93.84C73.85 94.58 69.04 94.99 64.01 94.99C48.52 94.99 35.16 91.12 28.97 85.52C40.7 103.1 69.68 100.42 69.68 100.42C70.64 100.36 71.58 100.28 72.51 100.19C74.87 99.96 76.9 101.87 76.9 104.32V113.13C76.9 116.83 80.28 119.52 83.76 118.61C86.13 117.98 88.35 117.24 90.36 116.38C95.65 114.13 99.06 111.26 99.76 108.54C99.92 107.91 100.51 107.5 101.14 107.5C101.45 107.5 102.01 108.02 102.62 108.74C102.69 108.33 102.73 107.91 102.73 107.5C102.72 106.06 102.28 104.65 101.45 103.3Z" fill="#B00020" style="fill:#B00020;fill:color(display-p3 0.6917 0.0000 0.1245);fill-opacity:1;"/>
<path d="M64 36.98C85.3845 36.98 102.72 29.5972 102.72 20.49C102.72 11.3828 85.3845 4 64 4C42.6156 4 25.28 11.3828 25.28 20.49C25.28 29.5972 42.6156 36.98 64 36.98Z" fill="#B0BEC5" style="fill:#B0BEC5;fill:color(display-p3 0.6902 0.7451 0.7725);fill-opacity:1;"/>
<path d="M37.73 58.3702C32.44 56.1202 29.03 53.2502 28.33 50.5302C28.17 49.9002 27.58 49.4902 26.95 49.4902C26 49.4902 25.28 50.4202 25.53 51.3702C27.54 58.9102 41.49 64.9002 59.12 65.8402C59.95 65.8802 60.65 65.1902 60.65 64.3302C60.65 63.5302 60.04 62.8802 59.26 62.8302C51.09 62.4102 43.58 60.8602 37.73 58.3702Z" fill="#FF7051" style="fill:#FF7051;fill:color(display-p3 1.0000 0.4397 0.3167);fill-opacity:1;"/>
<path d="M37.73 87.38C32.44 85.13 29.03 82.26 28.33 79.54C28.17 78.91 27.58 78.5 26.95 78.5C26 78.5 25.28 79.43 25.53 80.38C27.54 87.92 41.49 93.91 59.12 94.85C59.95 94.89 60.65 94.2 60.65 93.34C60.65 92.54 60.04 91.89 59.26 91.84C51.09 91.42 43.58 89.87 37.73 87.38Z" fill="#FF7051" style="fill:#FF7051;fill:color(display-p3 1.0000 0.4397 0.3167);fill-opacity:1;"/>
<path d="M37.73 116.39C32.44 114.14 29.03 111.27 28.33 108.55C28.17 107.92 27.58 107.51 26.95 107.51C26 107.51 25.28 108.44 25.53 109.39C27.54 116.93 41.49 122.92 59.12 123.86C59.95 123.9 60.65 123.21 60.65 122.35C60.65 121.55 60.04 120.9 59.26 120.85C51.09 120.43 43.58 118.88 37.73 116.39Z" fill="#FF7051" style="fill:#FF7051;fill:color(display-p3 1.0000 0.4397 0.3167);fill-opacity:1;"/>
<path d="M29.42 23.7301C29.47 18.8801 33.94 16.5901 38.34 14.6701C45.15 11.7001 54.2601 10.0701 63.9901 10.0701C73.7201 10.0701 82.84 11.7001 89.64 14.6701C94.04 16.5901 98.66 18.7401 98.5701 23.7301L101.43 21.2901C99.3501 11.1901 83.1301 5.3501 64 5.3501C44.8701 5.3501 28.07 11.0401 26.55 21.2901L29.42 23.7301Z" fill="#2167A1" style="fill:#2167A1;fill:color(display-p3 0.1294 0.4039 0.6314);fill-opacity:1;"/>
<path d="M64 7C73.95 7 83.26 8.63 90.21 11.59C96.17 14.13 99.73 17.45 99.73 20.49C99.73 23.52 96.17 26.85 90.21 29.39C83.26 32.35 73.95 33.98 64 33.98C54.05 33.98 44.74 32.35 37.79 29.39C31.83 26.85 28.27 23.53 28.27 20.49C28.27 17.46 31.83 14.13 37.79 11.59C44.74 8.63 54.05 7 64 7ZM64 4C42.61 4 25.28 11.38 25.28 20.49C25.28 29.6 42.62 36.98 64 36.98C85.38 36.98 102.72 29.6 102.72 20.49C102.72 11.38 85.39 4 64 4Z" fill="#DDEFF9" style="fill:#DDEFF9;fill:color(display-p3 0.8653 0.9355 0.9750);fill-opacity:1;"/>
<path d="M77.79 26.89V24.42L89.38 24.29V26.89C89.38 28.25 86.79 29.36 83.59 29.36C80.39 29.36 77.79 28.25 77.79 26.89Z" fill="#2167A1" style="fill:#2167A1;fill:color(display-p3 0.1294 0.4039 0.6314);fill-opacity:1;"/>
<path d="M43.0601 16.9799V15.2399C43.6201 15.0999 49.9401 15.3999 50.6301 15.3999V16.9899C50.6301 17.8799 48.9401 18.5999 46.8501 18.5999C44.7501 18.5899 43.0601 17.8699 43.0601 16.9799Z" fill="#2167A1" style="fill:#2167A1;fill:color(display-p3 0.1294 0.4039 0.6314);fill-opacity:1;"/>
<path d="M83.59 27.1099C86.7878 27.1099 89.38 26.0041 89.38 24.6399C89.38 23.2758 86.7878 22.1699 83.59 22.1699C80.3923 22.1699 77.8 23.2758 77.8 24.6399C77.8 26.0041 80.3923 27.1099 83.59 27.1099Z" fill="#E0E0E0" style="fill:#E0E0E0;fill:color(display-p3 0.8784 0.8784 0.8784);fill-opacity:1;"/>
<path d="M46.8401 16.9998C48.9277 16.9998 50.6201 16.279 50.6201 15.3898C50.6201 14.5006 48.9277 13.7798 46.8401 13.7798C44.7524 13.7798 43.0601 14.5006 43.0601 15.3898C43.0601 16.279 44.7524 16.9998 46.8401 16.9998Z" fill="#E0E0E0" style="fill:#E0E0E0;fill:color(display-p3 0.8784 0.8784 0.8784);fill-opacity:1;"/>
<path d="M35.22 29.8101C39.21 31.8701 44.14 33.2801 48.3 33.9901" stroke="white" style="stroke:white;stroke-opacity:1;" stroke-width="3" stroke-miterlimit="10" stroke-linecap="round"/>
</svg>

<?xml version="1.0" encoding="utf-8"?>
<!-- Generator: Adobe Illustrator 25.2.3, SVG Export Plug-In . SVG Version: 6.00 Build 0)  -->
<svg version="1.1" id="Layer_1_copy" xmlns="http://www.w3.org/2000/svg" xmlns:xlink="http://www.w3.org/1999/xlink" x="0px"
	 y="0px" viewBox="0 0 128 128" style="enable-background:new 0 0 128 128;" xml:space="preserve">
<g>
	<g>
		<path style="fill:#2686C6;" d="M102.72,78.5c0-1.45-0.45-2.86-1.28-4.21V53.7c0.83-1.34,1.28-2.75,1.28-4.21s-0.45-2.86-1.28-4.21
			V20.52H26.55v24.77c-0.83,1.34-1.28,2.75-1.28,4.21s0.45,2.86,1.28,4.21V74.3c-0.83,1.34-1.28,2.75-1.28,4.21s0.45,2.86,1.28,4.21
			v20.59c-0.83,1.34-1.28,2.75-1.28,4.21C25.28,116.62,42.61,124,64,124c21.39,0,38.72-7.38,38.72-16.49c0-1.45-0.45-2.86-1.28-4.21
			V82.71C102.28,81.37,102.72,79.96,102.72,78.5z"/>
		<g>
			<path style="fill:#2167A1;" d="M90.34,58.37c5.29-2.25,8.7-5.12,9.4-7.84c0.16-0.63,0.75-1.04,1.38-1.04
				c0.77,0,1.38,0.62,1.45,1.35c0.09-0.45,0.14-0.9,0.14-1.35c0-1.45-0.45-2.86-1.28-4.21V20.52H85.01l-24.37,16.4l11.54,2.8
				c2.75,0.67,4.7,3.21,4.7,6.14v11.21c0,2.62,2.33,4.6,4.8,4.04C84.84,60.39,87.76,59.47,90.34,58.37z"/>
			<path style="fill:#2167A1;" d="M101.45,74.3V58.07v-4.27v-0.1c-3.14,5.08-11.82,9.2-23.12,11.12c-0.02,0-0.05,0.01-0.07,0.01
				c-4.41,0.74-9.22,1.15-14.25,1.15c-13.73,0-25.79-3.05-32.66-7.64c12.85,14.2,38.33,11.84,38.33,11.84
				c0.93-0.06,1.84-0.13,2.74-0.22c2.4-0.23,4.47,1.72,4.47,4.21v13.55c0,1.73,1.52,3.05,3.16,2.73c3.78-0.76,7.27-1.79,10.3-3.08
				c5.29-2.25,8.7-5.12,9.4-7.84c0.16-0.63,0.75-1.04,1.38-1.04c0.77,0,1.38,0.62,1.45,1.35c0.09-0.45,0.14-0.9,0.14-1.35
				C102.72,77.05,102.28,75.64,101.45,74.3z"/>
			<path style="fill:#2167A1;" d="M101.45,103.3v-15v-5.49v-0.1c-3.14,5.08-11.82,9.2-23.12,11.12c-0.02,0-0.05,0.01-0.07,0.01
				c-4.41,0.74-9.22,1.15-14.25,1.15c-15.49,0-28.85-3.87-35.04-9.47c11.73,17.58,40.71,14.9,40.71,14.9
				c0.96-0.06,1.9-0.14,2.83-0.23c2.36-0.23,4.39,1.68,4.39,4.13v8.81c0,3.7,3.38,6.39,6.86,5.48c2.37-0.63,4.59-1.37,6.6-2.23
				c5.29-2.25,8.7-5.12,9.4-7.84c0.16-0.63,0.75-1.04,1.38-1.04c0.31,0,0.87,0.52,1.48,1.24c0.07-0.41,0.11-0.83,0.11-1.24
				C102.72,106.06,102.28,104.65,101.45,103.3z"/>
		</g>
		<ellipse style="fill:#B0BEC5;" cx="64" cy="20.49" rx="38.72" ry="16.49"/>
		<g>
			<path style="fill:#56BFE6;" d="M37.73,58.37c-5.29-2.25-8.7-5.12-9.4-7.84c-0.16-0.63-0.75-1.04-1.38-1.04h0
				c-0.95,0-1.67,0.93-1.42,1.88c2.01,7.54,15.96,13.53,33.59,14.47c0.83,0.04,1.53-0.65,1.53-1.51l0,0c0-0.8-0.61-1.45-1.39-1.5
				C51.09,62.41,43.58,60.86,37.73,58.37z"/>
			<path style="fill:#56BFE6;" d="M37.73,87.38c-5.29-2.25-8.7-5.12-9.4-7.84c-0.16-0.63-0.75-1.04-1.38-1.04h0
				c-0.95,0-1.67,0.93-1.42,1.88c2.01,7.54,15.96,13.53,33.59,14.47c0.83,0.04,1.53-0.65,1.53-1.51v0c0-0.8-0.61-1.45-1.39-1.5
				C51.09,91.42,43.58,89.87,37.73,87.38z"/>
			<path style="fill:#56BFE6;" d="M37.73,116.39c-5.29-2.25-8.7-5.12-9.4-7.84c-0.16-0.63-0.75-1.04-1.38-1.04h0
				c-0.95,0-1.67,0.93-1.42,1.88c2.01,7.54,15.96,13.53,33.59,14.47c0.83,0.04,1.53-0.65,1.53-1.51l0,0c0-0.8-0.61-1.45-1.39-1.5
				C51.09,120.43,43.58,118.88,37.73,116.39z"/>
		</g>
		<path style="fill:#2167A1;" d="M29.42,23.73c0.05-4.85,4.52-7.14,8.92-9.06c6.81-2.97,15.92-4.6,25.65-4.6s18.85,1.63,25.65,4.6
			c4.4,1.92,9.02,4.07,8.93,9.06l2.86-2.44C99.35,11.19,83.13,5.35,64,5.35s-35.93,5.69-37.45,15.94L29.42,23.73z"/>
		<g>
			<g>
				<path style="fill:#B9E4EA;" d="M64,7c9.95,0,19.26,1.63,26.21,4.59c5.96,2.54,9.52,5.86,9.52,8.9c0,3.03-3.56,6.36-9.52,8.9
					c-6.95,2.96-16.26,4.59-26.21,4.59s-19.26-1.63-26.21-4.59c-5.96-2.54-9.52-5.86-9.52-8.9c0-3.03,3.56-6.36,9.52-8.9
					C44.74,8.63,54.05,7,64,7 M64,4c-21.39,0-38.72,7.38-38.72,16.49c0,9.11,17.34,16.49,38.72,16.49s38.72-7.38,38.72-16.49
					C102.72,11.38,85.39,4,64,4L64,4z"/>
			</g>
		</g>
		<path style="fill:#2167A1;" d="M77.79,26.89v-2.47l11.59-0.13v2.6c0,1.36-2.59,2.47-5.79,2.47S77.79,28.25,77.79,26.89z"/>
		<path style="fill:#2167A1;" d="M43.06,16.98v-1.74c0.56-0.14,6.88,0.16,7.57,0.16v1.59c0,0.89-1.69,1.61-3.78,1.61
			C44.75,18.59,43.06,17.87,43.06,16.98z"/>
		<g>
			<ellipse style="fill:#E0E0E0;" cx="83.59" cy="24.64" rx="5.79" ry="2.47"/>
		</g>
		<g>
			<ellipse style="fill:#E0E0E0;" cx="46.84" cy="15.39" rx="3.78" ry="1.61"/>
		</g>
	</g>
	<path style="fill:none;stroke:#FFFFFF;stroke-width:3;stroke-linecap:round;stroke-miterlimit:10;" d="M35.22,29.81
		c3.99,2.06,8.92,3.47,13.08,4.18"/>
</g>
</svg>
